categories/16/applications-maths.svg

<?xml version="1.0" encoding="UTF-8" standalone="no"?>
<svg
   xmlns:dc="http://purl.org/dc/elements/1.1/"
   xmlns:cc="http://creativecommons.org/ns#"
   xmlns:rdf="http://www.w3.org/1999/02/22-rdf-syntax-ns#"
   xmlns:svg="http://www.w3.org/2000/svg"
   xmlns="http://www.w3.org/2000/svg"
   xmlns:sodipodi="http://sodipodi.sourceforge.net/DTD/sodipodi-0.dtd"
   xmlns:inkscape="http://www.inkscape.org/namespaces/inkscape"
   height="16"
   width="16"
   version="1.1"
   id="svg2"
   sodipodi:docname="applications-maths-symbolic.svg"
   inkscape:version="0.92.3 (2405546, 2018-03-11)">
  <metadata
     id="metadata8">
    <rdf:RDF>
      <cc:Work
         rdf:about="">
        <dc:format>image/svg+xml</dc:format>
        <dc:type
           rdf:resource="http://purl.org/dc/dcmitype/StillImage" />
        <dc:title></dc:title>
      </cc:Work>
    </rdf:RDF>
  </metadata>
  <sodipodi:namedview
     pagecolor="#808080"
     bordercolor="#808080666"
     borderopacity="1"
     objecttolerance="10"
     gridtolerance="10"
     guidetolerance="10"
     inkscape:pageopacity="0"
     inkscape:pageshadow="2"
     inkscape:window-width="1237"
     inkscape:window-height="840"
     id="namedview6"
     showgrid="false"
     inkscape:zoom="9.8333333"
     inkscape:cx="-7.4940325"
     inkscape:cy="12"
     inkscape:window-x="0"
     inkscape:window-y="34"
     inkscape:window-maximized="0"
     inkscape:current-layer="svg2" />
  <defs
     id="defs4">
    <style
       type="text/css"
       id="current-color-scheme">
   .ColorScheme-Text { color:#808080; } .ColorScheme-Highlight { color:#5294e2; } .ColorScheme-ButtonBackground { color:#808080; }
  </style>
  </defs>
  <path
     inkscape:connector-curvature="0"
     style="clip-rule:evenodd;fill:#808080;fill-opacity:1;fill-rule:evenodd;stroke-width:0.25979853;image-rendering:optimizeQuality;shape-rendering:geometricPrecision;text-rendering:geometricPrecision"
     id="1234567891011121314151617"
     class="fil0"
     d="M 14.445164,10.816258 13.947147,15.5 H 2 V 15.128472 L 8.0369376,8.4060534 2.169675,0.8682774 V 0.50015139 H 13.481641 V 4.4839624 h -0.750553 c -0.154961,-0.703597 -0.454443,-1.367622 -0.894769,-1.991736 -0.440327,-0.624453 -0.894769,-0.974249 -1.367626,-1.050028 -0.212636,-0.03779 -0.5124357,-0.06501 -0.9021352,-0.07937 -0.3930709,-0.0189 -0.710657,-0.03024 -0.9598224,-0.03024 H 5.34125 l 4.705213,6.047395 v 0.169701 L 4.547436,13.636915 h 6.902872 c 0.317594,0 0.598972,-0.09373 0.847827,-0.284976 0.245481,-0.187465 0.458431,-0.432945 0.635176,-0.728769 0.162331,-0.266834 0.30652,-0.566437 0.432964,-0.891401 0.126425,-0.328441 0.23811,-0.634847 0.335698,-0.916536 h 0.743187 z" />
</svg>

<?xml version="1.0" encoding="UTF-8"?>
<svg version="1.1" viewBox="0 0 16 16" xmlns="http://www.w3.org/2000/svg">
 <defs>
  <style id="current-color-scheme" type="text/css">.ColorScheme-Text { color:#808080; } .ColorScheme-Highlight { color:#5294e2; } .ColorScheme-ButtonBackground { color:#808080; }</style>
 </defs>
 <path class="fil0" d="m14.445 10.816-0.49802 4.6837h-11.947v-0.37153l6.0369-6.7224-5.8673-7.5378v-0.36813h11.312v3.9838h-0.75055c-0.15496-0.7036-0.45444-1.3676-0.89477-1.9917-0.44033-0.62445-0.89477-0.97425-1.3676-1.05-0.21264-0.03779-0.51244-0.06501-0.90214-0.07937-0.39307-0.0189-0.71066-0.03024-0.95982-0.03024h-3.2655l4.7052 6.0474v0.1697l-5.499 6.0872h6.9029c0.31759 0 0.59897-0.09373 0.84783-0.28498 0.24548-0.18746 0.45843-0.43294 0.63518-0.72877 0.16233-0.26683 0.30652-0.56644 0.43296-0.8914 0.12642-0.32844 0.23811-0.63485 0.3357-0.91654h0.74319z" clip-rule="evenodd" fill="#808080" fill-rule="evenodd" image-rendering="optimizeQuality" shape-rendering="geometricPrecision" stroke-width=".2598"/>
</svg>
